usr/share/icons/biglinux-icons-material-dark/symbolic/actions/vcs-commit.svg

<svg viewBox="0 0 16 16" xmlns="http://www.w3.org/2000/svg">
    <style type="text/css" id="current-color-scheme">
        .ColorScheme-Text {
            color:#dedede;
        }
    </style>
    <g class="ColorScheme-Text" fill="currentColor" stroke-linecap="square">
        <path d="m7 3h1v4h-1z"/>
        <path d="m7 10h1v4h-1z"/>
        <path d="m7.5 6a2.5 2.5 0 0 0 -2.5 2.5 2.5 2.5 0 0 0 2.5 2.5 2.5 2.5 0 0 0 2.5-2.5 2.5 2.5 0 0 0 -2.5-2.5zm0 1a1.5 1.5 0 0 1 1.5 1.5 1.5 1.5 0 0 1 -1.5 1.5 1.5 1.5 0 0 1 -1.5-1.5 1.5 1.5 0 0 1 1.5-1.5z"/>
    </g>
</svg>

<svg xmlns="http://www.w3.org/2000/svg" viewBox="0 0 16 16">
<style id="current-color-scheme" type="text/css">
.ColorScheme-Contrast{color:#dedede}
</style>
<g fill="currentColor" stroke-linecap="square" class="ColorScheme-Contrast">
<path d="M7 3h1v4H7zm0 7h1v4H7z"/>
<path d="M7.5 6A2.5 2.5 0 0 0 5 8.5 2.5 2.5 0 0 0 7.5 11 2.5 2.5 0 0 0 10 8.5 2.5 2.5 0 0 0 7.5 6m0 1A1.5 1.5 0 0 1 9 8.5 1.5 1.5 0 0 1 7.5 10 1.5 1.5 0 0 1 6 8.5 1.5 1.5 0 0 1 7.5 7"/>
</g>
</svg>
